svg/language.svg

<svg xmlns="http://www.w3.org/2000/svg" viewBox="0 0 61 56" enable-background="new 0 0 61 56"><style type="text/css">.st0{fill:#343434;}</style><title>language</title><desc>Created with Sketch.</desc><path class="st0" d="M30.4 9.2h-30.4v4.5h27c-1.7 4.2-4.1 7.7-7.2 10.2-3.3 2.7-7.8 4.8-13.6 6.2l2.5 4.3c7-1.8 12.4-4.6 16.3-8.5 3.3-3.4 6-8.4 8-14.7l-2.6-2zM3.7 0h24.8v4.5h-24.8zM46.9 21h-6.5l-13.4 35h6.1l3.2-8.8h14.7l3.2 8.8h6.1l-13.4-35zm-8.9 21.5l5.5-15.3h.2l5.5 15.3h-11.2z"/></svg>

<svg xmlns="http://www.w3.org/2000/svg" viewBox="0 0 61 56"><path d="M30.4 9.2H0v4.5h27c-1.7 4.2-4.1 7.7-7.2 10.2-3.3 2.7-7.8 4.8-13.6 6.2l2.5 4.3c7-1.8 12.4-4.6 16.3-8.5 3.3-3.4 6-8.4 8-14.7l-2.6-2zM3.7 0h24.8v4.5H3.7zm43.2 21h-6.5L27 56h6.1l3.2-8.8H51l3.2 8.8h6.1L46.9 21zM38 42.5l5.5-15.3h.2l5.5 15.3H38z" fill="#343434"/></svg>
